src/lib/runemarks/svg/factions-chaos-bladeborn-gnarlspirit-pack.svg

<svg xmlns="http://www.w3.org/2000/svg" xml:space="preserve" fill-rule="evenodd" stroke-linejoin="round" stroke-miterlimit="2" clip-rule="evenodd" viewBox="0 0 300 300"><path fill-rule="nonzero" d="M274.913 4.657c-11.432 9.046-27.034 26.373-31.806 35.316-7.129 13.361-10.139 12.743-22.305-4.567-7.375-10.491-15.391-18.816-22.42-23.272-9.404-5.964-9.485-4.575-.376 6.571 21.254 26.006 24.853 61.848 7.989 79.58-3.516 3.698-5.066 3.783-12.118.666-18.676-8.259-45.591-8.365-65.149-.25-21.831 9.059-27.332 2.279-27.291-33.613.028-23.018 1.241-28.211 9.909-42.403 6.994-11.452 6.837-11.057 3.506-8.878-4.125 2.702-16.168 16.957-24.049 28.467-11.925 17.409-17.804 16.678-28.553-3.561-8.476-15.962-25.077-28.184-38.399-28.273-6.359-.043-7.26 1.949-1.341 2.958 14.27 2.438 28.679 18.792 25.189 28.584-1.814 5.091-3.759 5.292-13.761 1.434-13.903-5.36-13.138-.974.984 5.672 30.966 14.57 50.913 40.062 36.761 46.983-6.012 2.94-20.822-.755-25.471-6.356-1.799-2.167-5.647-2.312-5.647-.212 0 4.53 16.99 15.008 31.702 19.547 8.822 2.723 13.228 5.203 17.898 10.085l3.287 3.436-4.124 4.223c-4.903 5.02-5.063 5.803-1.187 5.803 9.129 0 19.072 15.673 14.896 23.48-.628 1.172-1.614 7.113-2.195 13.201s-1.9 12.843-2.932 15.008l-1.876 3.934 6.659 10.41c6.097 9.533 7.243 10.704 13.591 13.897 9.151 4.602 11.051 6.473 12.908 12.735.857 2.889 2.391 6.861 3.409 8.828s2.092 7.177 2.386 11.58c1.155 17.232 1.018 16.852 8.474 23.084 8.556 7.148 8.147 7.868 9.766-17.309 1.659-25.768 2.304-29.996 4.654-30.449 2.665-.516 3.179 4.846 3.195 33.186l.012 25.057 4.509-4.403c8.821-8.614 12.959-16.586 15.425-29.722 3.169-16.869 9.684-26.712 21.979-33.212 6.773-3.58 7.884-5.803 10.52-21.016l2.072-11.972-2.804-4.112c-7.883-11.564-3.8-31.772 8.571-42.428 4.343-3.741 5.21-5.052 4.376-6.609-3.486-6.516 1.097-14.841 8.85-16.071 18.534-2.938 31.124-9.922 37.486-20.79l2.181-3.722-3.294 2.098c-1.812 1.154-4.3 2.977-5.527 4.054-11.204 9.81-29.571 6.754-29.571-4.92 0-11.259 19.696-35.271 28.927-35.271.614 0 3.974-1.068 7.464-2.372 6.988-2.616 6.609-3.555-1.913-4.786-7.124-1.027-9.929-3.913-9.929-10.219 0-8.061 3.884-14.43 18.833-30.888 3.907-4.302 2.782-3.834-4.324 1.792l-.002-.006-.001-.004zm-80.429 177.748c4.724 6.006.561 11.33-10.733 13.725-16.583 3.518-17.428-6.38-1.212-14.241 6.414-3.11 9.188-2.991 11.945.517zm-59.36 2.813c9.234 5.675 11.573 15.173 3.414 13.867-9.935-1.588-18.742-6.92-18.742-11.346 0-6.32 7.216-7.508 15.328-2.522zm59.684 43.895c-7.582 8.613-8.957 19.559-5.865 46.586 1.322 11.542 1.282 12.17-1.096 17.075-3.169 6.546-2.332 7.255 2.588 2.191 10.214-10.516 16.895-30.111 16.934-49.662.04-20.661-4.022-25.895-12.56-16.191zm-87.013 4.752c-8.053 17.203-2.677 49.192 10.594 63.046 3.373 3.519 6.63 4.219 5.23 1.121-1.842-4.069-1.867-23.407-.041-28.973 3.328-10.146 4.454-30.612 2.271-41.332-.462-2.271-1.157-2.511-7.259-2.511h-6.746z"/></svg>

<?xml version="1.0" encoding="UTF-8" standalone="no"?>
<!DOCTYPE svg PUBLIC "-//W3C//DTD SVG 1.1//EN" "http://www.w3.org/Graphics/SVG/1.1/DTD/svg11.dtd">
<svg width="100%" height="100%" viewBox="0 0 300 300" version="1.1" xmlns="http://www.w3.org/2000/svg" xmlns:xlink="http://www.w3.org/1999/xlink" xml:space="preserve" xmlns:serif="http://www.serif.com/" style="fill-rule:evenodd;clip-rule:evenodd;stroke-linejoin:round;stroke-miterlimit:2;">
    <path d="M274.913,4.657C263.481,13.703 247.879,31.03 243.107,39.973C235.978,53.334 232.968,52.716 220.802,35.406C213.427,24.915 205.411,16.59 198.382,12.134C188.978,6.17 188.897,7.559 198.006,18.705C219.26,44.711 222.859,80.553 205.995,98.285C202.479,101.983 200.929,102.068 193.877,98.951C175.201,90.692 148.286,90.586 128.728,98.701C106.897,107.76 101.396,100.98 101.437,65.088C101.465,42.07 102.678,36.877 111.346,22.685C118.34,11.233 118.183,11.628 114.852,13.807C110.727,16.509 98.684,30.764 90.803,42.274C78.878,59.683 72.999,58.952 62.25,38.713C53.774,22.751 37.173,10.529 23.851,10.44C17.492,10.397 16.591,12.389 22.51,13.398C36.78,15.836 51.189,32.19 47.699,41.982C45.885,47.073 43.94,47.274 33.938,43.416C20.035,38.056 20.8,42.442 34.922,49.088C65.888,63.658 85.835,89.15 71.683,96.071C65.671,99.011 50.861,95.316 46.212,89.715C44.413,87.548 40.565,87.403 40.565,89.503C40.565,94.033 57.555,104.511 72.267,109.05C81.089,111.773 85.495,114.253 90.165,119.135L93.452,122.571L89.328,126.794C84.425,131.814 84.265,132.597 88.141,132.597C97.27,132.597 107.213,148.27 103.037,156.077C102.409,157.249 101.423,163.19 100.842,169.278C100.261,175.366 98.942,182.121 97.91,184.286L96.034,188.22L102.693,198.63C108.79,208.163 109.936,209.334 116.284,212.527C125.435,217.129 127.335,219 129.192,225.262C130.049,228.151 131.583,232.123 132.601,234.09C133.619,236.057 134.693,241.267 134.987,245.67C136.142,262.902 136.005,262.522 143.461,268.754C152.017,275.902 151.608,276.622 153.227,251.445C154.886,225.677 155.531,221.449 157.881,220.996C160.546,220.48 161.06,225.842 161.076,254.182L161.088,279.239L165.597,274.836C174.418,266.222 178.556,258.25 181.022,245.114C184.191,228.245 190.706,218.402 203.001,211.902C209.774,208.322 210.885,206.099 213.521,190.886L215.593,178.914L212.789,174.802C204.906,163.238 208.989,143.03 221.36,132.374C225.703,128.633 226.57,127.322 225.736,125.765C222.25,119.249 226.833,110.924 234.586,109.694C253.12,106.756 265.71,99.772 272.072,88.904L274.253,85.182L270.959,87.28C269.147,88.434 266.659,90.257 265.432,91.334C254.228,101.144 235.861,98.088 235.861,86.414C235.861,75.155 255.557,51.143 264.788,51.143C265.402,51.143 268.762,50.075 272.252,48.771C279.24,46.155 278.861,45.216 270.339,43.985C263.215,42.958 260.41,40.072 260.41,33.766C260.41,25.705 264.294,19.336 279.243,2.878C283.15,-1.424 282.025,-0.956 274.919,4.67L274.917,4.664L274.916,4.66L274.913,4.657ZM194.484,182.405C199.208,188.411 195.045,193.735 183.751,196.13C167.168,199.648 166.323,189.75 182.539,181.889C188.953,178.779 191.727,178.898 194.484,182.406L194.484,182.405ZM135.124,185.218C144.358,190.893 146.697,200.391 138.538,199.085C128.603,197.497 119.796,192.165 119.796,187.739C119.796,181.419 127.012,180.231 135.124,185.217L135.124,185.218ZM194.808,229.113C187.226,237.726 185.851,248.672 188.943,275.699C190.265,287.241 190.225,287.869 187.847,292.774C184.678,299.32 185.515,300.029 190.435,294.965C200.649,284.449 207.33,264.854 207.369,245.303C207.409,224.642 203.347,219.408 194.809,229.112L194.808,229.113ZM107.795,233.865C99.742,251.068 105.118,283.057 118.389,296.911C121.762,300.43 125.019,301.13 123.619,298.032C121.777,293.963 121.752,274.625 123.578,269.059C126.906,258.913 128.032,238.447 125.849,227.727C125.387,225.456 124.692,225.216 118.59,225.216L111.844,225.216L107.795,233.865Z" style="fill-rule:nonzero;"/>
</svg>
